X:1
T:G Major Oliver Holden, 1803
T:Anonymous, First Published 1803 88. 88. (L. M.)
T:Obedience No copyright. Treble-Tenor-Bass from The Charlestown Collection , 1803 Counter by B. C. Johnston, 2015.
%%score [ 1 2 3 4 ]
L:1/8
M:2/2
K:G
V:1 treble nm="Treble" snm="Tr."
V:2 treble nm="Counter" snm="C."
V:3 treble-8 nm="Tenor" snm="T."
V:4 bass nm="Bass" snm="B."
V:1
 d4 | B6 cA | G2 G2 G2 A2 | G6 d2 | c2 B2 A2 B2 | c4 B4 | A6 B2 | A2 G2 F2 D2 | c4 d4 | e6 ^c2 | %10
w: 1.~Come,|all ye *|lo- vers of the|Lamb, This|path your dear Re-|dee- mer|trod; Be-|hold Him ben- ding|in the|stream, See|
w: 2.~Re-|pen- ting *|sin- ner, hi- ther|come; Nor|lin- ger on the|dis- tant|shore; Your|Sa- vior made this|sol- emn|rite An|
 d2 d2 A2 c2 | B4 A4 | G6 G2 | B2 B2 e2 B2 | G2 E2 (B>cBA | G3 A B2 G2) | A4 c2 e2 | d4 (e2 c2) | %18
w: Him a- rise ap-|proved of|God; Be-|hold Him ben- ding|in the stream~ _ _ _|_ _ _ _|See Him a-|rise ap- *|
w: em- blem of His|sa- ving|power; Your|Sa- vior made thus|sol- emn rite~ _ _ _|_ _ _ _|An em- blem|of His *|
 B4 A4 | G8 |] %20
w: proved of|God.|
w: sa- ving|power.|
V:2
 G4 | B6 AF | D2 G2 B2 A2 | B6 G2 | A2 B2 A2 G2 | A4 G4 | D6 D2 | F2 G2 A2 F2 | E4 G4 | A6 A2 | %10
 A2 A2 F2 A2 | G4 A4 | B6 D2 | G2 G2 B2 B2 | G2 G2 (B4 | G8) | A4 A2 A2 | G4 (F2 A2) | G4 A4 | %19
 G8 |] %20
V:3
 B4 | G6 F2 | G2 B2 d2 c2 | B6 G2 | A2 B2 c2 d2 | A4 G4 | F6 G2 | d2 d2 d2 A2 | A4 B4 | c6 G2 | %10
w: 3.~By|faith a-|lone the trem- bling|soul Can|urge her claim to|chil- dren's|food; She|quits her hold on|hope- less|forms, And|
w: 4.~O-|be- dience|flows from wil- ling|minds; Re-|newed and pu- ri-|fied by|grace; Come|free- ly to the|gos- pel|pool, All|
 A2 A2 d2 A2 | G4 A4 | B6 B2 | G2 E2 B2 G2 | E2 G2 (B4 | E>FGF E2) B2 | d4 A2 GA | B4 A4 | G4 A4 | %19
w: seeks in Christ her|on- ly|good; She|quits her hold on|hope- less forms~|_ _ _ _ _ _|And seeks in *|Christ her|on- ly|
w: ye who hum- bly|seek His|face; Come|free- ly to the|gos- pel pool,~|_ _ _ _ _ _|All ye who *|hum- bly|seek His|
 B8 |] %20
w: good.|
w: face.|
V:4
 G,4 | G,6 A,2 | B,2 G,2 B,,2 D,2 | G,6 B,2 | A,2 G,2 D,2 G,2 | F,4 G,4 | D,6 G,2 | %7
 F,2 G,2 D,2 D,2 | C,4 B,,4 | A,,6 A,,2 | D,2 D,2 F,2 F,2 | G,4 D,4 | G,,6 G,2 | E,2 E,2 E,2 E,2 | %14
 E,2 E,2 E,4- | E,8 | D,4 C,2 C,2 | B,,4 C,4 | D,4 D,4 | G,,8 |] %20

